packages/ui-icons/svg/Line/page-down.svg

<svg viewBox="0 0 1920 1920" version="1.1" xmlns="http://www.w3.org/2000/svg">
    <path d="M1751.02022,1806.92713 L1751.02022,1920 L168,1920 L168,1806.92713 L1751.02022,1806.92713 Z M1751.02022,1580.78138 L1751.02022,1693.85425 L168,1693.85425 L168,1580.78138 L1751.02022,1580.78138 Z M1013.78509,0 L1013.78509,1168.382 L1369.51235,812.541666 L1449.56794,892.59726 L957.248654,1384.80348 L464.929365,892.59726 L544.984959,812.541666 L900.712218,1168.382 L900.712218,0 L1013.78509,0 Z" stroke="none" stroke-width="1" fill-rule="evenodd"/>
</svg>

<svg viewBox="0 0 1920 1920" version="1.1" xmlns="http://www.w3.org/2000/svg">
    <path d="M168 1693.854v-113.073h1583.02v113.073H168zM168 1920v-113.073h1583.02V1920H168zM900.712 0h113.073v1168.382l355.727-355.84 80.056 80.055-492.32 492.206L464.93 892.597l80.056-80.055 355.727 355.84V0z" stroke="none" stroke-width="1" fill-rule="evenodd"/>
</svg>
